site/static/images/icons/chrome.svg

<svg fill="none" height="32" viewBox="0 0 32 32" width="32" xmlns="http://www.w3.org/2000/svg"><g fill="#0075ff"><circle cx="16" cy="16" opacity=".15" r="16"/><path d="m16 6c-5.5 0-10 4.5-10 10s4.5 10 10 10 10-4.5 10-10-4.5-10-10-10zm0 2c3 0 5.5 1.6 6.9 4h-6.9c-1.9 0-3.6 1.4-3.9 3.2l-2.4-4.1c1.5-1.9 3.7-3.1 6.3-3.1zm3 8c0 1.7-1.3 3-3 3s-3-1.3-3-3 1.3-3 3-3 3 1.3 3 3zm-11 0c0-1.5.4-2.8 1.1-4l3.5 6c.7 1.2 2 2 3.4 2 .5 0 .9-.1 1.3-.2l-2.4 4.1c-3.9-.5-6.9-3.9-6.9-7.9zm8 8 3.5-6c.3-.6.6-1.3.6-2 0-1.2-.5-2.3-1.4-3h4.8c.4.9.6 1.9.6 3-.1 4.4-3.7 8-8.1 8z"/></g></svg>

<svg width="32" height="32" viewBox="0 0 32 32" fill="none" xmlns="http://www.w3.org/2000/svg">
<circle opacity="0.15" cx="16" cy="16" r="16" fill="#0075ff"/>
<path d="M16 6C10.5 6 6 10.5 6 16C6 21.5 10.5 26 16 26C21.5 26 26 21.5 26 16C26 10.5 21.5 6 16 6ZM16 8C19 8 21.5 9.6 22.9 12H16C14.1 12 12.4 13.4 12.1 15.2L9.7 11.1C11.2 9.2 13.4 8 16 8ZM19 16C19 17.7 17.7 19 16 19C14.3 19 13 17.7 13 16C13 14.3 14.3 13 16 13C17.7 13 19 14.3 19 16ZM8 16C8 14.5 8.4 13.2 9.1 12L12.6 18C13.3 19.2 14.6 20 16 20C16.5 20 16.9 19.9 17.3 19.8L14.9 23.9C11 23.4 8 20 8 16ZM16 24L19.5 18C19.8 17.4 20.1 16.7 20.1 16C20.1 14.8 19.6 13.7 18.7 13H23.5C23.9 13.9 24.1 14.9 24.1 16C24 20.4 20.4 24 16 24Z" fill="#0075ff"/>
</svg>
